X:154
T:Sonata Op.4 No.1 - Preludio
C:Corelli, A.
M:4/4
L:1/8
Q:1/4=66
K:C
|:G2|c4 de f2|e2 dc B2 A2|G4 AB c2|d4 c2 G2|
A4 Bc d2|c2 BA G2 F2|E4 FG A2|G4 G2:|

